assets/icons/standard/cancel_checkout.svg

<svg xmlns="http://www.w3.org/2000/svg" width="100" height="100" viewBox="0 0 100 100">
  <path fill="#fff" d="M67.6430764,52.000622 C76.698498,52.000622 84,59.607436 84,68.5654176 C83.9734483,75.2459518 79.9211344,81.2512146 73.736007,83.7759803 C67.5508796,86.3007459 60.4536828,84.8467074 55.7597153,80.0930865 C51.0657477,75.3394657 49.7014467,68.2244736 52.3041153,62.0717215 C54.9067839,55.9189693 60.9627395,51.9428115 67.6430764,52.000622 Z M76.099909,58.3456813 C75.7092262,57.9553155 75.0760612,57.9555726 74.6859827,58.3465424 L74.6859827,58.3465424 L67.3962284,65.6422184 L60.5030161,58.7313311 C60.5027147,58.731029 60.5024131,58.730727 60.5021113,58.7304252 L60.407904,58.6472366 C60.0156127,58.3422117 59.4483817,58.3699412 59.0878977,58.7304252 L59.0878977,58.7304252 L57.4295053,60.3888176 C57.0393345,60.7789884 57.0389296,61.4114552 57.4286005,61.8021252 L57.4286005,61.8021252 L64.3236213,68.7148256 L57.4696899,75.5628687 L57.4696899,75.5628687 L57.3858938,75.6570758 C57.0808706,76.0493653 57.1086217,76.6165748 57.4693861,76.9767783 L57.4693861,76.9767783 L59.1342757,78.6416679 C59.5248,79.0321922 60.157965,79.0321922 60.5484892,78.6416679 L60.5484892,78.6416679 L67.4027244,71.7874328 L74.6537925,79.0503393 C74.6534076,79.0511078 74.6535998,79.0513001 74.6537921,79.0514924 L74.7479991,79.1346807 C75.1402872,79.4397024 75.7074773,79.411932 76.0674291,79.0509158 L76.0674291,79.0509158 L77.7258227,77.3925222 C78.1155448,77.0016462 78.1158028,76.368926 77.7263997,75.9777321 L77.7263997,75.9777321 L70.4753316,68.7148256 L77.7647987,61.4253585 C78.155323,61.0348342 78.155323,60.4016692 77.7647987,60.0111449 L77.7647987,60.0111449 L76.0999091,58.3462553 C76.1001004,58.3458726 76.1000047,58.3457769 76.099909,58.3456813 Z M40.8,67 C44.0032515,67 46.6,69.5967485 46.6,72.8 C46.6,76.0032515 44.0032515,78.6 40.8,78.6 C37.5967485,78.6 35,76.0032515 35,72.8 C35,69.5967485 37.5967485,67 40.8,67 Z M23.0454531,15 C24.5144128,15 25.8703756,16.0125 26.3223632,17.475 L26.3223632,17.475 L27.2263384,20.625 L78.7529249,20.625 C80.2218846,20.625 81.3518536,21.975 80.8987361,23.4375 L80.8987361,23.4375 L74.7969035,44.8125 C74.6860501,45.3091463 74.4120712,45.7245885 74.0417796,46.0189947 C71.971672,45.413624 69.7855442,45.09 67.5275,45.09 C64.7266848,45.09 62.0365147,45.587903 59.5411313,46.4995675 L39.3170067,46.5 C37.1700656,46.5 35.4751121,48.6375 36.2660904,50.775 L36.2660904,50.775 L36.2660904,50.8875 C36.6050811,52.2375 37.9610439,53.25 39.4300036,53.25 L39.4300036,53.25 L49.7895067,53.2502748 C48.0723203,55.2397594 46.682163,57.5183882 45.7047626,60.0004333 L34.45814,60 C32.8761834,60 31.6332175,58.9875 31.1812299,57.525 L31.1812299,57.525 L20.5595213,21.75 L17.3956081,21.75 C15.4746608,21.75 13.8927042,20.0625 14.0057011,18.15 C14.118698,16.35 15.8136515,15 17.6216019,15 L17.6216019,15 Z" />
</svg>

<?xml version="1.0"?><svg xmlns="http://www.w3.org/2000/svg" width="100" height="100" viewBox="0 0 100 100"><path fill="#fff" d="m67.6 52c9.1 0 16.4 7.6 16.4 16.6 0 6.6-4.1 12.7-10.3 15.2-6.1 2.5-13.2 1-17.9-3.7-4.7-4.8-6.1-11.9-3.5-18 2.6-6.2 8.7-10.2 15.3-10.1z m8.5 6.3c-0.4-0.3-1-0.3-1.4 0l-7.3 7.3-6.9-6.9v0l-0.1-0.1c-0.4-0.3-1-0.2-1.3 0.1l-1.7 1.7c-0.4 0.4-0.4 1 0 1.4l6.9 6.9-6.8 6.9-0.1 0.1c-0.3 0.3-0.3 0.9 0.1 1.3l1.6 1.6c0.4 0.4 1.1 0.4 1.4 0l6.9-6.8 7.3 7.2 0 0.1c0.4 0.3 1 0.3 1.4 0l1.6-1.7c0.4-0.4 0.4-1 0-1.4l-7.2-7.3 7.3-7.3c0.4-0.4 0.4-1 0-1.4l-1.7-1.7z m-35.3 8.7c3.2 0 5.8 2.6 5.8 5.8s-2.6 5.8-5.8 5.8-5.8-2.6-5.8-5.8 2.6-5.8 5.8-5.8z m-17.8-52c1.5 0 2.9 1 3.3 2.5l0.9 3.1h51.6c1.4 0 2.6 1.4 2.1 2.8l-6.1 21.4c-0.1 0.5-0.4 0.9-0.8 1.2-2-0.6-4.2-0.9-6.5-0.9-2.8 0-5.5 0.5-8 1.4h-20.2c-2.1 0-3.8 2.1-3 4.3v0.1c0.3 1.3 1.7 2.3 3.1 2.3h10.4c-1.7 2-3.1 4.3-4.1 6.8h-11.2c-1.6 0-2.9-1-3.3-2.5l-10.6-35.7h-3.2c-1.9 0-3.5-1.7-3.4-3.7 0.1-1.8 1.8-3.1 3.6-3.1z"></path></svg>
